X: 1778
T: Sigaramın Dumanı
C: (Anonim)
O: Turkey
F: http://compmusic.upf.edu/node/140
N: ussak--turku--sofyan--sigaramin_dumani--
N: makam= ussak
N: form= turku
N: usul= sofyan = 4/4
M: 4/4
L: 1/16
K: C _2/4B   
Q: 1/4=66
%%MIDI tuningsystem comma53
d2cd d2d2 dc2B d4  | c2BA AGc2 BA3 BAB2  | \
w:  ARANAĞME  |   | 
c2BA AGc2 BA3 A2G/A/B/c/  | 
w:   | 
d2cd d2d2 dc2B d4  | c2BA AGc2 BA3 BAB2  | \
w:  ARANAĞME  |   | 
c2BA AGc2 BA3 A4  | 
w:   | 
z2cd d2d2 dc2B d4  | c2BA AGc2 BA3 {c}BAB2  | \
w:  Si ga ra mın  du *  ma nı    |  Yok tur  *  yâ *  rin  i ma *  nı    | 
c2BA AGc2 B3A A2G/A/B/c/  | 
w:  Yok tur  *  yâ *  rin  i ma nı   SAZ  | 
d2cd d2d2 dccB d4  | cB2A AGc2 BA3 {c}BAB2  | 
w:  *  Al tın dan  köşk  yap *  tır *  dım    |  Gü müş *  ten  *  mer di va *  nı    | 
cB2A AGc2 BA3 A2G/A/B/c/  | d2cd d2d2 dc2B d4  | 
w:  Gü müş *  ten  *  mer di va nı   SAZ  |  *  Hey  gül lü  gül lü  gül *  lü    | 
c2BA AGc2 B2A2 {c}BAB2  | c2BA AGc2 B2A2 A2G/A/B/c/  | 
w:  Peş te *  ma *  lı  püs kül *  lü    |  Peş te *  ma *  lı  püs kül lü   SAZ  | 
d2cd d2d2 dc2B d4  | c2BA AGc2 BA3 {c}BAB2  | \
w:  *  Ha nım  et me  bu  na *  zı    |  Gel  bi *  ze  *  ba zı  ba *  zı    | 
c2BA AGc2 BA3 A2G/A/B/c/  | 
w:  Gel  bi *  ze  *  ba zı  ba zı   SAZ  | 
d2cd d2d2 dc2B d4  | c2BA AGc2 BA3 {c}BAB2  | \
w:  *  Bi ze  Har put lu  der *  ler    |  Biz  çek *  me *  yiz  bu  na *  zı    | 
c2BA AGc2 BA3 A4  | 
w:  Biz  çek *  me *  yiz  bu  na zı    | 
|


